img/icon_plate.svg

<?xml version="1.0" encoding="UTF-8" standalone="no"?>
<svg width="800px" height="370px" viewBox="0 0 800 370" version="1.1" xmlns="http://www.w3.org/2000/svg" xmlns:xlink="http://www.w3.org/1999/xlink" xmlns:sketch="http://www.bohemiancoding.com/sketch/ns">
    <!-- Generator: Sketch 3.0.4 (8053) - http://www.bohemiancoding.com/sketch -->
    <title>icon_plate</title>
    <desc>Created with Sketch.</desc>
    <defs></defs>
    <g id="Page-1" stroke="none" stroke-width="1" fill="none" fill-rule="evenodd" sketch:type="MSPage">
        <g id="icon_plate" sketch:type="MSArtboardGroup">
            <g id="plate_details" sketch:type="MSLayerGroup" transform="translate(166.000000, 10.000000)">
                <path d="M24.6318948,26.6956226 C24.6318948,25.5591194 25.0516913,25.5591194 25.5661703,25.5591194 C26.2186802,25.5591194 26.1810354,26.8820627 26.1810354,26.8820627 L28.9678915,76.603519 C28.9678915,76.907182 29.2222791,77.1460932 29.5291412,77.1460932 L31.7444808,77.1460932 C32.0456392,77.1460932 32.2966045,76.907182 32.2966045,76.603519 L35.2819513,27.1901913 C35.2819513,27.1901913 35.4040118,25.782401 36.1169815,25.782401 C36.9440264,25.782401 37.1801619,27.3587689 37.1801619,27.3587689 C37.1801619,27.3587689 41.1089103,61.1948579 41.5036103,65.9976445 C41.8948881,70.8048967 45.4928186,97.5093724 33.6426913,111.568296 C24.406026,122.532538 25.1942853,144.45209 25.1942853,144.45209 C25.1942853,144.45209 24.5748572,188.230907 27.9263853,219.934657 C31.2744911,251.637291 31.8368816,306.735367 31.8368816,317.945218 C31.8368816,324.614639 25.5638888,326.254642 21.1560248,326.254642 C16.751583,326.254642 10.4820124,324.614639 10.4820124,317.945218 C10.4820124,306.735367 11.0409807,251.637291 14.3925088,219.934657 C17.7440369,188.230907 17.123468,144.45209 17.123468,144.45209 C17.123468,144.45209 17.9128681,122.532538 8.6762027,111.568296 C-3.17506526,97.5093724 0.422865165,70.8048967 0.817565205,65.9976445 C1.20770224,61.1948579 5.13759136,27.3587689 5.13759136,27.3587689 C5.13759136,27.3587689 5.37372694,25.782401 6.20191257,25.782401 C6.91602304,25.782401 7.03694271,27.1901913 7.03694271,27.1901913 L10.020008,76.603519 C10.020008,76.907182 10.2675511,77.1460932 10.5744133,77.1460932 L12.7908936,77.1460932 C13.0977557,77.1460932 13.3498618,76.907182 13.3498618,76.603519 L16.1378587,26.8820627 C16.1378587,26.8820627 16.1024954,25.5591194 16.751583,25.5591194 C17.2672027,25.5591194 17.6847178,25.5591194 17.6847178,26.6956226 L19.497372,76.603519 C19.497372,76.907182 19.7426336,77.1460932 20.0517773,77.1460932 L22.265976,77.1460932 C22.5728382,77.1460932 22.8226628,76.907182 22.8226628,76.603519 L24.6318948,26.6956226 Z" id="Fill-16" fill="#636463" sketch:type="MSShapeGroup"></path>
                <path d="M466.305619,318.912835 C466.573368,308.690817 466.892524,258.424765 464.71519,229.413526 C463.685963,215.726999 461.889903,196.560455 462.427543,171.749661 C462.691008,159.525649 467.320923,137.167973 468.451894,92.4526205 C469.580723,47.7362287 456.321797,32.0549835 452.909604,28.3732276 C447.988379,23.0595245 442.659105,25.7829013 442.830464,32.2701511 C442.999681,38.755322 447.81702,160.504817 447.81702,160.504817 C447.81702,160.504817 449.808001,200.418919 447.492508,229.413526 C445.178087,258.414371 445.994185,308.690817 446.264076,318.912835 C446.425796,324.999894 452.232735,326.352227 456.284312,326.249321 C460.33696,326.352227 466.140685,324.999894 466.305619,318.912835 Z" id="Fill-17" fill="#636463" sketch:type="MSShapeGroup" transform="translate(455.712921, 176.192541) scale(-1, 1) translate(-455.712921, -176.192541) "></path>
                <ellipse id="Oval-47" fill="#636463" sketch:type="MSShapeGroup" cx="243.783778" cy="175.155142" rx="176.075503" ry="175.155142"></ellipse>
                <ellipse id="Oval-47" stroke="#FFFFFF" stroke-width="2" sketch:type="MSShapeGroup" cx="243.783778" cy="175.155142" rx="118.64315" ry="118.022993"></ellipse>
            </g>
        </g>
    </g>
</svg>

<svg width="800" height="370" viewBox="0 0 800 370" xmlns="http://www.w3.org/2000/svg"><title>icon_plate</title><desc>Created with Sketch.</desc><g transform="translate(166 10)" fill="none"><path d="M24.632 26.696c0-1.137.42-1.137.934-1.137.653 0 .615 1.32.615 1.32l2.79 49.72c0 .3.26.54.56.54h2.22c.3 0 .555-.24.555-.54l2.984-49.42s.12-1.41.834-1.41c.826 0 1.06 1.58 1.06 1.58s3.93 33.834 4.327 38.64c.39 4.805 3.99 31.51-7.86 45.57-9.24 10.963-8.45 32.882-8.45 32.882s-.62 43.78 2.73 75.483c3.348 31.702 3.91 86.8 3.91 98.01 0 6.67-6.272 8.31-10.68 8.31s-10.674-1.64-10.674-8.31c0-11.21.56-66.308 3.91-98.01 3.352-31.704 2.73-75.483 2.73-75.483s.79-21.92-8.446-32.884C-3.174 97.51.42 70.808.816 66c.39-4.803 4.32-38.64 4.32-38.64s.235-1.576 1.063-1.576c.72 0 .84 1.408.84 1.408l2.982 49.414c0 .303.248.542.554.542h2.217c.31 0 .56-.24.56-.542l2.79-49.722s-.035-1.323.615-1.323c.513 0 .93 0 .93 1.137l1.815 49.91c0 .302.246.54.555.54h2.214c.306 0 .556-.24.556-.54l1.81-49.91zM445.12 318.913c-.267-10.222-.587-60.488 1.59-89.5 1.03-13.686 2.826-32.853 2.288-57.663-.263-12.224-4.893-34.582-6.024-79.297-1.13-44.717 12.13-60.398 15.542-64.08 4.922-5.313 10.25-2.59 10.08 3.897-.17 6.485-4.987 128.235-4.987 128.235s-2 39.914.32 68.91c2.31 29 1.5 79.276 1.23 89.498-.17 6.087-5.97 7.44-10.02 7.336-4.06.1-9.86-1.25-10.03-7.34z" fill="#636463"/><ellipse fill="#636463" cx="243.784" cy="175.155" rx="176.076" ry="175.155"/><ellipse stroke="#fff" stroke-width="2" cx="243.784" cy="175.155" rx="118.643" ry="118.023"/></g></svg>
